X: 5430
T: Bullock On The Bonnet, The
R: reel
M: 4/4
K: Dmajor
ag|f2 df edBA|fAdf a3 g|f2 df edBA|(3 Bcd ed B3 g|
fAdf edBA|fAdf a3 g|fAdf edBA|(3 Bcd ed B3 A|
|:FBBA FADA|FBBA Bc d2|FBBA Bcde|1 fedf e2 dc:|2 fedf e4||

